markets/RUNE.svg

<svg width="42" height="42" viewBox="0 0 42 42" fill="none" xmlns="http://www.w3.org/2000/svg">
<g clip-path="url(#clip0_7698_9582)">
<circle cx="21.0001" cy="21" r="21" fill="#0F1821"/>
<path fill-rule="evenodd" clip-rule="evenodd" d="M30.6494 10.1918C24.4971 17.6923 22.2812 20.3525 22.1443 20.4014C22.0598 20.4318 20.689 19.1522 19.0979 17.5579L16.2051 14.659L23.3359 11.6704C27.2577 10.0265 30.8575 8.50433 31.3354 8.28756C31.8132 8.07078 32.2852 7.88528 32.3845 7.87507C32.4835 7.86508 31.7027 8.90747 30.6494 10.1918ZM28.1141 26.4638C28.0633 26.5146 18.8038 30.3731 12.2643 33.0685L9.70117 34.125L11.2868 32.4075C12.1589 31.4629 14.974 28.4 17.5425 25.601L22.2125 20.5124L25.1916 23.4597C26.83 25.081 28.1452 26.4327 28.1141 26.4638Z" fill="url(#paint0_linear_7698_9582)"/>
</g>
<defs>
<linearGradient id="paint0_linear_7698_9582" x1="30.7706" y1="11.459" x2="9.72281" y2="34.1393" gradientUnits="userSpaceOnUse">
<stop stop-color="#4DF6A7"/>
<stop offset="1" stop-color="#12D1E8"/>
</linearGradient>
<clipPath id="clip0_7698_9582">
<rect width="42" height="42" rx="21" fill="white"/>
</clipPath>
</defs>
</svg>

<svg width="42" height="42" viewBox="0 0 42 42" fill="none" xmlns="http://www.w3.org/2000/svg"><g clip-path="url(#clip0_7698_9582)"><circle cx="21" cy="21" r="21" fill="#0F1821"/><path fill-rule="evenodd" clip-rule="evenodd" d="M30.65 10.192c-6.153 7.5-8.369 10.16-8.506 10.21-.084.03-1.455-1.25-3.046-2.844l-2.893-2.899 7.13-2.989c3.923-1.643 7.523-3.166 8-3.382.478-.217.95-.403 1.05-.413.099-.01-.682 1.032-1.736 2.317zm-2.536 16.272c-.05.05-9.31 3.91-15.85 6.605l-2.563 1.056 1.586-1.718c.872-.944 3.687-4.007 6.255-6.806l4.67-5.089 2.98 2.948c1.638 1.621 2.953 2.973 2.922 3.004z" fill="url(#paint0_linear_7698_9582)"/></g><defs><linearGradient id="paint0_linear_7698_9582" x1="30.771" y1="11.459" x2="9.723" y2="34.139" gradientUnits="userSpaceOnUse"><stop stop-color="#4DF6A7"/><stop offset="1" stop-color="#12D1E8"/></linearGradient><clipPath id="clip0_7698_9582"><rect width="42" height="42" rx="21" fill="#fff"/></clipPath></defs></svg>
